resources/icons/16px/crop.svg

<svg width="16" height="16" viewBox="0 0 16 16" fill="none" xmlns="http://www.w3.org/2000/svg">
<path d="M11 15C11 15.5523 11.4477 16 12 16C12.5523 16 13 15.5523 13 15V13H15C15.5523 13 16 12.5523 16 12C16 11.4477 15.5523 11 15 11H5.00001V1C5.00001 0.447715 4.55229 4.82823e-08 4.00001 0C3.44772 -4.82823e-08 3.00001 0.447716 3.00001 1L3.00001 3L1.00001 3C0.447722 3 5.77033e-06 3.44772 7.6294e-06 4C7.58112e-06 4.55229 0.447722 5 1.00001 5L3.00001 5L3.00001 12C3.00001 12.5523 3.44772 13 4.00001 13H11V15Z" fill="#5F6B7C"/>
<path d="M12 2.99999L6.00001 2.99999V4.99999L11 4.99999L11 10H13L13 3.99999C13 3.44771 12.5523 2.99999 12 2.99999Z" fill="#5F6B7C"/>
</svg>

<svg xmlns="http://www.w3.org/2000/svg" viewBox="0 0 16 16">
  <path d="M11 15a1 1 0 1 0 2 0v-2h2a1 1 0 1 0 0-2H5V1a1 1 0 0 0-2 0v2H1a1 1 0 1 0 0 2h2v7a1 1 0 0 0 1 1h7z"/>
  <path d="M12 3H6v2h5v5h2V4a1 1 0 0 0-1-1"/>
</svg>
